X:118
T: O BARON DU FALSCHES KIND
N: E0710
O: Europa, Mitteleuropa, Deutschland, Rheiland, Siebengebirge
R: Liebes - Lied, Leid, Klage
M: 6/8
L: 1/8
K: Bb
FDF | G2BAGF | B2d
FDF | G2BA2F | B2z
FDF | G2BAGF | B2d
FDF | G2BA2F | B2z
d2f | edcBAG | F2
FG2G | edcB2A | B2z
d2f | edcBAG | F2
FG2G | edcB2A | B2z

@@@ Tune index: 4431
